dist/icons/svgs/user-solid.svg

<svg xmlns="http://www.w3.org/2000/svg" width="24" height="24" fill="currentcolor" class="icon-user-solid" viewBox="0 0 24 24">
  <path d="M12 12C10.2031 12 8.5625 11.0625 7.66406 9.5C6.76562 7.97656 6.76562 6.0625 7.66406 4.5C8.5625 2.97656 10.2031 2 12 2C13.7578 2 15.3984 2.97656 16.2969 4.5C17.1953 6.0625 17.1953 7.97656 16.2969 9.5C15.3984 11.0625 13.7578 12 12 12ZM10.2031 13.875H13.7578C17.625 13.875 20.75 17 20.75 20.8672C20.75 21.4922 20.2031 22 19.5781 22H4.38281C3.75781 22 3.25 21.4922 3.25 20.8672C3.25 17 6.33594 13.875 10.2031 13.875Z"/>
</svg>

<svg xmlns="http://www.w3.org/2000/svg" width="24" height="24" fill="currentColor" class="icon-user-solid" viewBox="0 0 24 24">
  <path d="M12 12a4.97 4.97 0 0 1-4.336-2.5c-.898-1.523-.898-3.437 0-5C8.563 2.977 10.204 2 12 2c1.758 0 3.398.977 4.297 2.5.898 1.563.898 3.477 0 5A4.96 4.96 0 0 1 12 12m-1.797 1.875h3.555a6.985 6.985 0 0 1 6.992 6.992c0 .625-.547 1.133-1.172 1.133H4.383a1.134 1.134 0 0 1-1.133-1.133c0-3.867 3.086-6.992 6.953-6.992"/>
</svg>
